X:40
%%score 1 2
%%staffscale 1.0
T:All in a garden green
M:C
L:1/4
K:F
V:1 clef-treble
V:2 clef-bass octave=-1
V:1
c2 cc & F4|A>B cA & F3F|dc BA & F2 EF|G3 A & E4|
w:All in a gar-den green Two lov-ers sat at ease, As
V:2
[FA]4|c3x & F>G A[Fc]|BA GF|c2 C2|
V:1
B>c (d/e/)f & F2 F2|F>G (A/B/)c & F2 F2|[B,EB][CFA] (G/F/)G & x2 [CE]2|[A,F]4||
w:they could scarce* be seen a mong,* A-mong the leaf-*y trees. 
V:2
D2 B,2|A,2 F,A,|G,F, C2|F4||
V:1
(c>c) df & [CG]2 [FA]2|fe f2 & [Gc]2 [Fc]2|A>A [GB][FA] & F2 B,2|[CEG][A,F] [CEG]2|(A>G) F/G/A & C2 D2|
w:They* long had lov'd y-fere, And no longer* than tru-ly, In* that* time
w:|**(together)||||
V:2
E2 D2|C2 A,2|D2 G,2|CD C2|F,4|
V:1
B>A (G/A/B) & D2 E2|(c>B) (A/B/)c & E2 FE|d>c BA & D>E F/G/C|[B,DG][A,F] G/F/G & x2 [CE]2|[A,F]4||
w:of the year,** In* that* time of the year Com-eth 'twixt May* and July.
V:2
G,4|A,4|B,>C D/E/F|GD C2|F4||

